X: 101
T: the Girl of my Heart
%R: reel
Z: 2014 John Chambers <jc:trillian.mit.edu>
B: Thompson "Twenty four Country Dances for the Year 1805" p.10 #1
F: http://folkopedia.efdss.org/images/2/2a/Thompson_24_1805.PDF 2014-8-13
N: Added "pickup" rest to 2nd strain to fix the rhythm.
M: C|
L: 1/8
K: G
dd |\
g2bg a2fd | g2bd' c'2ac' | bd'gb ee'c'a | gfaf d2dd |
g2bg a2fd | g2bd' c'2ac' | bd'gb ee'c'a | gfaf g2 |]
z2 |\
b2ag bd'd'b | c'abg afed | ee'dd' cc'Bb | ac'ea gfed |
b2ag bd'd'b | c'abg afed | egce AcFA | GgdB G2 |]
% - - - - - - - - - - - - - - - - - - - - - - - - -
%%begintext align
%% Cast of 2 Cu: up again, lead down the middle
%% up again, turn corners head outsides.
%%endtext
% - - - - - - - - - - - - - - - - - - - - - - - - -
